wp-content/themes/lnob/assets/images/svgs/book.svg

<svg fill="none" height="24" viewBox="0 0 24 24" width="24" xmlns="http://www.w3.org/2000/svg"><g stroke="#000" stroke-linecap="round" stroke-linejoin="round" stroke-width="2"><path d="m4 19.5c0-.663.26339-1.2989.73223-1.7678.46884-.4688 1.10473-.7322 1.76777-.7322h13.5"/><path d="m6.5 2h13.5v20h-13.5c-.66304 0-1.29893-.2634-1.76777-.7322-.46884-.4689-.73223-1.1048-.73223-1.7678v-15c0-.66304.26339-1.29893.73223-1.76777s1.10473-.73223 1.76777-.73223z"/></g></svg>

<svg width="24" height="24" viewBox="0 0 24 24" fill="none" xmlns="http://www.w3.org/2000/svg">
<path d="M4 19.5C4 18.837 4.26339 18.2011 4.73223 17.7322C5.20107 17.2634 5.83696 17 6.5 17H20" stroke="black" stroke-width="2" stroke-linecap="round" stroke-linejoin="round"/>
<path d="M6.5 2H20V22H6.5C5.83696 22 5.20107 21.7366 4.73223 21.2678C4.26339 20.7989 4 20.163 4 19.5V4.5C4 3.83696 4.26339 3.20107 4.73223 2.73223C5.20107 2.26339 5.83696 2 6.5 2V2Z" stroke="black" stroke-width="2" stroke-linecap="round" stroke-linejoin="round"/>
</svg>
